packages/icons/svgs/duotone/Source=zone.svg

<svg width="24" height="24" viewBox="0 0 24 24" fill="none" xmlns="http://www.w3.org/2000/svg">
<g clip-path="url(#clip0_2586_1890)">
<path opacity="0.5" fill-rule="evenodd" clip-rule="evenodd" d="M12.0008 12.979C12.0235 12.4272 12.4892 11.9982 13.041 12.0208C15.947 12.14 18.5918 12.7549 20.5461 13.722C22.428 14.6532 24 16.0947 24 18C24 20.0138 22.2496 21.5104 20.1919 22.4457C18.0439 23.4222 15.1467 24 12 24C8.85333 24 5.95608 23.4222 3.80805 22.4457C1.75035 21.5104 0 20.0138 0 18C0 16.8641 0.573516 15.8833 1.39755 15.1057C2.21894 14.3306 3.34842 13.6948 4.64858 13.2068C5.16564 13.0127 5.74214 13.2745 5.93622 13.7916C6.1303 14.3086 5.86848 14.8851 5.35142 15.0792C4.20858 15.5082 3.33806 16.0244 2.7702 16.5603C2.20498 17.0937 2 17.5829 2 18C2 18.7472 2.71215 19.7506 4.6357 20.625C6.46892 21.4583 9.07167 22 12 22C14.9283 22 17.5311 21.4583 19.3643 20.625C21.2879 19.7506 22 18.7472 22 18C22 17.2973 21.3755 16.3638 19.6591 15.5145C18.0152 14.7011 15.66 14.13 12.959 14.0192C12.4072 13.9965 11.9782 13.5308 12.0008 12.979Z" fill="black" style="fill:black;fill-opacity:1;"/>
<path fill-rule="evenodd" clip-rule="evenodd" d="M8.44951 1.16516C8.73013 0.980119 9.08495 0.948445 9.39392 1.08086L16.3939 4.08086C16.7616 4.23844 17 4.59998 17 5C17 5.40003 16.7616 5.76157 16.3939 5.91915L10 8.6594V18C10 18.5523 9.55228 19 9 19C8.44771 19 8 18.5523 8 18V8.02305C7.99965 8.00797 7.99966 7.99292 8 7.9779V2C8 1.66386 8.16888 1.35021 8.44951 1.16516ZM10 6.48346L13.4614 5L10 3.51654V6.48346Z" fill="black" style="fill:black;fill-opacity:1;"/>
</g>
<defs>
<clipPath id="clip0_2586_1890">
<rect width="24" height="24" fill="white" style="fill:white;fill-opacity:1;"/>
</clipPath>
</defs>
</svg>

<svg xmlns="http://www.w3.org/2000/svg" width="24" height="24" viewBox="0 0 24 24"><g fill-rule="evenodd" clip-path="url(#a)" clip-rule="evenodd"><path d="M12 12.979a1 1 0 0 1 1.041-.958c2.906.119 5.55.734 7.505 1.701C22.428 14.653 24 16.095 24 18c0 2.014-1.75 3.51-3.808 4.446C18.044 23.422 15.147 24 12 24s-6.044-.578-8.192-1.554C1.75 21.51 0 20.014 0 18c0-1.136.574-2.117 1.398-2.894.82-.775 1.95-1.411 3.25-1.9a1 1 0 1 1 .703 1.873c-1.142.43-2.013.945-2.58 1.481C2.204 17.094 2 17.583 2 18c0 .747.712 1.75 2.636 2.625C6.469 21.458 9.072 22 12 22s5.531-.542 7.364-1.375C21.288 19.751 22 18.747 22 18c0-.703-.625-1.636-2.34-2.485-1.645-.814-4-1.385-6.701-1.496a1 1 0 0 1-.958-1.04" opacity=".5"/><path d="M8.45 1.165a1 1 0 0 1 .944-.084l7 3a1 1 0 0 1 0 1.838L10 8.66V18a1 1 0 1 1-2 0V2a1 1 0 0 1 .45-.835M10 6.483 13.461 5 10 3.517z"/></g><defs><clipPath id="a"><path fill="#fff" d="M0 0h24v24H0z"/></clipPath></defs></svg>
